src/assets/images/icons/skills/mysql.svg

<?xml version="1.0" encoding="UTF-8"?>
<!-- Generator: Adobe Illustrator 26.0.1, SVG Export Plug-In . SVG Version: 6.00 Build 0)  -->
<svg xmlns="http://www.w3.org/2000/svg" xmlns:xlink="http://www.w3.org/1999/xlink" version="1.1" id="Capa_1" x="0px" y="0px" viewBox="0 0 24 24" style="enable-background:new 0 0 24 24;" xml:space="preserve" width="512" height="512">
<g>
	<path style="fill-rule:evenodd;clip-rule:evenodd;" d="M5.457,4.257c-0.277,0-0.472,0.033-0.669,0.082v0.033H4.82   c0.132,0.261,0.36,0.441,0.522,0.67c0.131,0.261,0.246,0.521,0.376,0.783C5.734,5.808,5.75,5.791,5.75,5.791   c0.23-0.162,0.344-0.424,0.344-0.816C5.996,4.86,5.98,4.747,5.898,4.632C5.8,4.469,5.588,4.388,5.457,4.257L5.457,4.257z"/>
	<path style="fill-rule:evenodd;clip-rule:evenodd;" d="M22.107,18.442c-1.307-0.033-2.318,0.098-3.167,0.457   c-0.245,0.098-0.636,0.098-0.67,0.408c0.131,0.13,0.147,0.342,0.262,0.523c0.196,0.326,0.537,0.766,0.848,0.996   c0.343,0.261,0.686,0.521,1.045,0.75c0.636,0.393,1.355,0.621,1.974,1.013c0.36,0.228,0.718,0.522,1.079,0.767   c0.179,0.13,0.292,0.343,0.521,0.424V23.73c-0.115-0.146-0.147-0.359-0.261-0.523c-0.163-0.162-0.327-0.31-0.49-0.472   c-0.474-0.637-1.062-1.191-1.697-1.648c-0.523-0.36-1.666-0.85-1.877-1.452c0,0-0.017-0.017-0.033-0.033   c0.359-0.033,0.784-0.164,1.127-0.263c0.554-0.146,1.06-0.113,1.631-0.26c0.262-0.066,0.523-0.148,0.785-0.228v-0.148   c-0.295-0.293-0.506-0.686-0.817-0.963c-0.832-0.718-1.747-1.419-2.693-2.008c-0.507-0.327-1.16-0.538-1.699-0.816   c-0.195-0.098-0.521-0.146-0.636-0.311c-0.294-0.359-0.458-0.832-0.67-1.257c-0.473-0.897-0.931-1.892-1.338-2.84   c-0.294-0.636-0.473-1.272-0.832-1.86c-1.682-2.775-3.51-4.456-6.317-6.105C7.579,2.2,6.861,2.053,6.094,1.874   C5.685,1.856,5.278,1.825,4.87,1.809C4.608,1.694,4.346,1.384,4.118,1.237c-0.931-0.587-3.329-1.86-4.015-0.179   c-0.441,1.062,0.653,2.106,1.029,2.645c0.277,0.375,0.637,0.8,0.832,1.224C2.078,5.204,2.11,5.498,2.225,5.791   c0.261,0.718,0.505,1.518,0.849,2.188C3.253,8.322,3.449,8.682,3.677,8.99c0.132,0.181,0.36,0.261,0.409,0.556   C3.858,9.872,3.84,10.362,3.71,10.77c-0.587,1.845-0.359,4.13,0.474,5.484c0.261,0.408,0.881,1.306,1.714,0.963   c0.734-0.293,0.571-1.224,0.783-2.039c0.049-0.197,0.016-0.327,0.114-0.457v0.033c0.228,0.456,0.457,0.896,0.67,1.355   c0.506,0.799,1.387,1.632,2.123,2.186c0.391,0.295,0.701,0.8,1.191,0.98v-0.049h-0.032c-0.098-0.146-0.245-0.212-0.375-0.326   c-0.294-0.294-0.62-0.653-0.849-0.98c-0.685-0.914-1.29-1.926-1.828-2.971c-0.262-0.507-0.49-1.062-0.702-1.567   c-0.098-0.195-0.098-0.49-0.261-0.587c-0.246,0.359-0.604,0.669-0.783,1.109c-0.31,0.703-0.343,1.568-0.458,2.466   c-0.065,0.017-0.032,0-0.065,0.032c-0.522-0.13-0.701-0.669-0.898-1.125c-0.489-1.16-0.572-3.021-0.147-4.36   c0.114-0.342,0.605-1.419,0.408-1.746C4.689,8.859,4.363,8.682,4.184,8.436c-0.212-0.31-0.442-0.701-0.587-1.045   c-0.392-0.914-0.589-1.926-1.012-2.84c-0.196-0.425-0.54-0.866-0.816-1.257C1.458,2.853,1.115,2.543,0.87,2.021   c-0.081-0.18-0.195-0.474-0.065-0.669c0.032-0.131,0.098-0.18,0.229-0.213C1.245,0.96,1.85,1.188,2.061,1.286   C2.666,1.53,3.172,1.76,3.677,2.102c0.229,0.164,0.474,0.474,0.767,0.556h0.343c0.522,0.113,1.11,0.032,1.6,0.179   c0.864,0.277,1.648,0.685,2.35,1.126c2.138,1.355,3.901,3.282,5.092,5.583c0.196,0.375,0.279,0.718,0.458,1.109   c0.343,0.802,0.768,1.618,1.11,2.4c0.343,0.767,0.67,1.55,1.16,2.188c0.244,0.342,1.224,0.522,1.665,0.702   c0.326,0.146,0.832,0.277,1.126,0.456c0.555,0.342,1.109,0.735,1.632,1.111C21.241,17.708,22.058,18.115,22.107,18.442   L22.107,18.442z"/>
</g>
</svg>

<?xml version="1.0" encoding="UTF-8" standalone="no"?>
<!-- Generator: Adobe Illustrator 26.0.1, SVG Export Plug-In . SVG Version: 6.00 Build 0)  -->

<svg
   version="1.1"
   id="Capa_1"
   x="0px"
   y="0px"
   viewBox="0 0 24 24"
   style="enable-background:new 0 0 24 24;"
   xml:space="preserve"
   width="512"
   height="512"
   sodipodi:docname="mysql.svg"
   inkscape:version="1.2.2 (732a01da63, 2022-12-09)"
   xmlns:inkscape="http://www.inkscape.org/namespaces/inkscape"
   xmlns:sodipodi="http://sodipodi.sourceforge.net/DTD/sodipodi-0.dtd"
   xmlns="http://www.w3.org/2000/svg"
   xmlns:svg="http://www.w3.org/2000/svg"><defs
   id="defs672" /><sodipodi:namedview
   id="namedview670"
   pagecolor="#ffffff"
   bordercolor="#000000"
   borderopacity="0.25"
   inkscape:showpageshadow="2"
   inkscape:pageopacity="0.0"
   inkscape:pagecheckerboard="0"
   inkscape:deskcolor="#d1d1d1"
   showgrid="false"
   showguides="false"
   inkscape:zoom="0.4609375"
   inkscape:cx="-198.50847"
   inkscape:cy="256"
   inkscape:window-width="1920"
   inkscape:window-height="1080"
   inkscape:window-x="0"
   inkscape:window-y="0"
   inkscape:window-maximized="0"
   inkscape:current-layer="Capa_1" />
<g
   id="g667"
   transform="matrix(1.0000393,0,0,1.0187147,0,-0.00413407)">
	<path
   style="clip-rule:evenodd;fill-rule:evenodd"
   d="M 5.457,4.257 C 5.18,4.257 4.985,4.29 4.788,4.339 V 4.372 H 4.82 C 4.952,4.633 5.18,4.813 5.342,5.042 5.473,5.303 5.588,5.563 5.718,5.825 5.734,5.808 5.75,5.791 5.75,5.791 5.98,5.629 6.094,5.367 6.094,4.975 5.996,4.86 5.98,4.747 5.898,4.632 5.8,4.469 5.588,4.388 5.457,4.257 Z"
   id="path663" />
	<path
   style="clip-rule:evenodd;fill-rule:evenodd"
   d="m 22.107,18.442 c -1.307,-0.033 -2.318,0.098 -3.167,0.457 -0.245,0.098 -0.636,0.098 -0.67,0.408 0.131,0.13 0.147,0.342 0.262,0.523 0.196,0.326 0.537,0.766 0.848,0.996 0.343,0.261 0.686,0.521 1.045,0.75 0.636,0.393 1.355,0.621 1.974,1.013 0.36,0.228 0.718,0.522 1.079,0.767 0.179,0.13 0.292,0.343 0.521,0.424 v -0.05 c -0.115,-0.146 -0.147,-0.359 -0.261,-0.523 -0.163,-0.162 -0.327,-0.31 -0.49,-0.472 -0.474,-0.637 -1.062,-1.191 -1.697,-1.648 -0.523,-0.36 -1.666,-0.85 -1.877,-1.452 0,0 -0.017,-0.017 -0.033,-0.033 0.359,-0.033 0.784,-0.164 1.127,-0.263 0.554,-0.146 1.06,-0.113 1.631,-0.26 0.262,-0.066 0.523,-0.148 0.785,-0.228 V 18.703 C 22.889,18.41 22.678,18.017 22.367,17.74 21.535,17.022 20.62,16.321 19.674,15.732 19.167,15.405 18.514,15.194 17.975,14.916 17.78,14.818 17.454,14.77 17.339,14.605 17.045,14.246 16.881,13.773 16.669,13.348 16.196,12.451 15.738,11.456 15.331,10.508 15.037,9.872 14.858,9.236 14.499,8.648 12.817,5.873 10.989,4.192 8.182,2.543 7.579,2.2 6.861,2.053 6.094,1.874 5.685,1.856 5.278,1.825 4.87,1.809 4.608,1.694 4.346,1.384 4.118,1.237 3.187,0.65 0.789,-0.623 0.103,1.058 -0.338,2.12 0.756,3.164 1.132,3.703 1.409,4.078 1.769,4.503 1.964,4.927 2.078,5.204 2.11,5.498 2.225,5.791 2.486,6.509 2.73,7.309 3.074,7.979 3.253,8.322 3.449,8.682 3.677,8.99 3.809,9.171 4.037,9.251 4.086,9.546 3.858,9.872 3.84,10.362 3.71,10.77 3.123,12.615 3.351,14.9 4.184,16.254 4.445,16.662 5.065,17.56 5.898,17.217 6.632,16.924 6.469,15.993 6.681,15.178 6.73,14.981 6.697,14.851 6.795,14.721 v 0.033 c 0.228,0.456 0.457,0.896 0.67,1.355 0.506,0.799 1.387,1.632 2.123,2.186 0.391,0.295 0.701,0.8 1.191,0.98 V 19.226 H 10.747 C 10.649,19.08 10.502,19.014 10.372,18.9 10.078,18.606 9.752,18.247 9.523,17.92 8.838,17.006 8.233,15.994 7.695,14.949 7.433,14.442 7.205,13.887 6.993,13.382 6.895,13.187 6.895,12.892 6.732,12.795 6.486,13.154 6.128,13.464 5.949,13.904 5.639,14.607 5.606,15.472 5.491,16.37 5.426,16.387 5.459,16.37 5.426,16.402 4.904,16.272 4.725,15.733 4.528,15.277 4.039,14.117 3.956,12.256 4.381,10.917 4.495,10.575 4.986,9.498 4.789,9.171 4.689,8.859 4.363,8.682 4.184,8.436 3.972,8.126 3.742,7.735 3.597,7.391 3.205,6.477 3.008,5.465 2.585,4.551 2.389,4.126 2.045,3.685 1.769,3.294 1.458,2.853 1.115,2.543 0.87,2.021 0.789,1.841 0.675,1.547 0.805,1.352 0.837,1.221 0.903,1.172 1.034,1.139 1.245,0.96 1.85,1.188 2.061,1.286 2.666,1.53 3.172,1.76 3.677,2.102 3.906,2.266 4.151,2.576 4.444,2.658 h 0.343 c 0.522,0.113 1.11,0.032 1.6,0.179 0.864,0.277 1.648,0.685 2.35,1.126 2.138,1.355 3.901,3.282 5.092,5.583 0.196,0.375 0.279,0.718 0.458,1.109 0.343,0.802 0.768,1.618 1.11,2.4 0.343,0.767 0.67,1.55 1.16,2.188 0.244,0.342 1.224,0.522 1.665,0.702 0.326,0.146 0.832,0.277 1.126,0.456 0.555,0.342 1.109,0.735 1.632,1.111 0.261,0.196 1.078,0.603 1.127,0.93 z"
   id="path665" />
</g>
</svg>
